X:1
T:I Will Follow Thee
T:I Will Follow Thee
T:Edwin Othello Excell
T:Johnson Oatman, Jr., 1921
T:Public Domain Courtesy of the Cyber Hymnal™
C:Edwin Othello Excell
Z:Public Domain
Z:Courtesy of the Cyber Hymnal™
%%score ( 1 2 ) ( 3 4 )
L:1/8
Q:1/4=100
M:3/4
K:G
V:1 treble 
V:2 treble 
V:3 bass 
V:4 bass 
V:1
 [B,D]>[B,D] | [B,D]3 [B,D] [B,G]>[CA] | [DB]4 [CA]>[B,^G] | [CA]3 [Ec] [DB]>[CA] | %4
w: 1.~Sav- ior,|I will fol- low|Thee; Thou art|all the world to|
w: 2~Sav- ior,|I will fol- low|Thee, Tho’ it|lead me to the|
w: 3.~Sav- ior,|I will fol- low|Thee, Tho’ it|lead through toil and|
w: 4.~Sav- ior,|I will fol- low|Thee Till the|toils of life are|
 [B,G]4 [B,D]>[B,D] | [B,D]3 [B,D] [B,G]>[CA] | [DB]4 [DB]>[DB] | [Fd]3 [Ec] [DB]>[DA] | %8
w: me; Tho’ the|way I can- not|see, Sav- ior,|I will fol- low|
w: cross; Count- ing|all things here but|dross, Sav- ior,|I will fol- low|
w: tears; Through the|long and wear- y|years, Sav- ior,|I will fol- low|
w: o’er; Till I|reach the gold- en|shore, Sav- ior,|I will fol- low|
 [DG]4 z2 ||[M:4/4]"^Refrain" [DB]2 [B,D]2 D4 | D>D [B,G]>[CA] [DB]4 | [CA]2 [CD]2 D4 | %12
w: Thee.||||
w: Thee.|Fol- low Thee,|I will fol- low Thee,|Fol- low Thee,|
w: Thee.||||
w: Thee.||||
 D>D [B,G]<[Ec] [DB]4 | [CE]>[CE] [CE]>[EG] [Ec]>[Ec] [Ec]2 | %14
w: ||
w: I will fol- low Thee;|Fol- low till the day is done,|
w: ||
w: ||
 [B,D]>[B,D] [B,D]>[B,G] [DB]>[DB] [DB]2 |[M:3/4] [DB]>[DB] | [Fd]3 [Ec] [DB]<[DA] | [DG]4 |] %18
w: ||||
w: Fol- low till the crown is won,|Sav- ior,|I will fol- low|Thee.|
w: ||||
w: ||||
V:2
 x2 | x6 | x6 | x6 | x6 | x6 | x6 | x6 | x6 ||[M:4/4] x4 (B,>B,C<C) | B,2 x6 | x4 (C>B,A,<C) | %12
 B,2 x6 | x8 | x8 |[M:3/4] x2 | x6 | x4 |] %18
V:3
 [G,,G,]>[G,,G,] | [G,,G,]3 [G,,G,] [G,,D,]>[G,,D,] | [G,,G,]4 [D,F,]>[D,^E,] | %3
w: ~ ~|~ ~ ~ ~|~ ~ ~|
 [D,F,]3 [D,F,] [D,F,]>[D,F,] | [G,,G,]4 [G,,G,]>[G,,G,] | [G,,G,]3 [G,,G,] [G,,D,]>[G,,D,] | %6
w: ~ ~ ~ ~|~ ~ ~|~ ~ ~ ~|
 [G,,G,]4 G,>G, | [D,A,]3 [D,A,] [D,C]>[D,C] | [G,,G,B,]4 z2 || %9
w: ~ ~ ~|~ ~ ~ ~|~|
[M:4/4] [G,,G,]2 [G,,G,]2 [G,,G,]>[G,,G,] [G,,A,]<[G,,A,] | [G,,G,]2 [G,,G,]>[G,,G,] [G,,G,]4 | %11
w: Fol- low, I will fol- low|Thee, fol- low Thee,|
 [D,F,]2 [D,F,]2 [D,A,]>[D,G,] [D,F,]<[D,A,] | [G,,G,]2 [G,,G,]<[G,,G,] [G,,G,]4 | %13
w: Fol- low, I will fol- low|Thee, fol- low Thee,|
 [C,G,]>[C,G,] [C,G,]>[C,C] [C,G,]>[C,G,] [C,G,]2 | %14
w: |
 [G,,G,]>[G,,G,] [G,,G,]>[G,,D,] [G,,G,]>[G,,G,] [G,,G,]2 |[M:3/4] G,>G, | %16
w: ||
 [D,A,]3 [D,A,] [D,C]<[D,C] | [G,,G,B,]4 |] %18
w: ||
V:4
 x2 | x6 | x6 | x6 | x6 | x6 | x4 G,>G, | x6 | x6 ||[M:4/4] x8 | x8 | x8 | x8 | x8 | x8 | %15
[M:3/4] G,>G, | x6 | x4 |] %18

